X:151
T:Hear Us O Lord from Heaven Thy Dwelling Place
T:Peel Castle
Z:Jack Campin, http://www.campin.me.uk/
F:Jack Campin's Nine-Note Tunebook
% last edit 27-02-2013
G:Manx fishermen's hymn
M:4/4
L:1/4
Q:1/4=132
K:D
A2FE|D2CD|DFED|D4 |\
D2FA|d3 B|AAAF|A4||
D2FA|d3 B|AFFA|A4 |\
D2FA|G2DF|EDDD|D4|]

